X:203
T:The Rights of Man
M:4/4
K:Em
GA|"Em"(3BcB (3ABA (3GAG (3FGF|EFGA B2 e-f|gfed edcB|"Am"cBAG "B7"A2 GA|
"Em"(3BcB (3ABA (3GAG (3FGF|EFGA B2 e-f|gfed "B7"Bg (3fgf|"Em"e2E2 E2:|
|:ga|"Em"babg efga|babg e2fe|"D"d^cde fefg|afdf a2 g-f|
"Em"eBeg "D"fdfa|"Em"gfga bgef|gfed "B7"Bg (3fgf|"Em"e2E2E2:|
